!!!SOCIAL_FUNCTION:	memorial ceremony songs
!!!PDT:	1932
!!!OTL: No_37_Coyote_Seizes_the_Heart.krn
!!!REG: Southwest
!!!LANG: Non-Tone
!!!LING_GROUP: Yuman-Cochimi
**kern	**kern
*staff2	*staff1
=1-	=1-
=	=
*clefF4	*clefF4
*k[f#]	*k[f#]
*M2/4	*M2/4
8GG/L	4B\
8GG/J	.
8GG/L	8.B\L
8GG/J	.
.	16A\Jk
=2	=2
8GG/L	8B\L
8GG/J	8G\J
8GG/L	8E\L
8GG/J	8B\J
=3	=3
2r	4A#\
.	8B\L
.	16G\L
.	16E\JJ
=4	=4
2r	8B\L
.	8G\J
.	16E\
.	16r
.	8E\
=5	=5
2r	4G\
.	8.G\L
.	16E\Jk
=6	=6
2r	8G\L
.	[8E\J
.	8E\L]
.	8E\J
=7	=7
2r	4E\
.	8.E\L
.	16E\Jk
=8	=8
2r	8E\L
.	8E\J
.	4E\
==:|!	==:|!
*-	*-
